dist/svg/reorder.svg

<!-- Generated by Trend Micro Style Portal -->
<svg version="1.1" xmlns="http://www.w3.org/2000/svg" width="16" height="16" viewBox="0 0 16 16">
  <title>reorder</title>
  <path fill="rgb(34,34,34)" d="M10 12v-10h2v10h2l-3 4-3-4h2zM8 4l-3-4-3 4h2v10h2v-10h2z"></path>
</svg>

<svg width="16" height="16" viewBox="0 0 16 16" fill="rgb(34, 34, 34)" xmlns="http://www.w3.org/2000/svg"><title>reorder</title><path d="M10 12V2H12V12H14L11 16L8 12H10ZM8 4L5 0L2 4H4V14H6V4H8Z" fill="rgb(34, 34, 34)" fill-opacity="1.00"/></svg>
